img/icons/this/card.svg

<svg width="44" height="41" viewBox="0 0 44 41" fill="none" xmlns="http://www.w3.org/2000/svg">
<path d="M16.2949 0.191144C16.447 0.281824 16.5797 0.401448 16.6853 0.543185C16.791 0.684921 16.8675 0.845992 16.9106 1.0172C16.9538 1.1884 16.9626 1.36639 16.9366 1.54098C16.9106 1.71558 16.8503 1.88337 16.7592 2.03477L9.88691 13.4378H34.8117L27.9367 2.03477C27.7528 1.72899 27.6983 1.36297 27.7854 1.01722C27.8725 0.671475 28.0939 0.374326 28.401 0.191144C28.7081 0.00796254 29.0758 -0.0462466 29.423 0.0404421C29.7703 0.127131 30.0687 0.347616 30.2527 0.653394L37.959 13.4378H41.244C41.9599 13.4378 42.6465 13.721 43.1527 14.225C43.6589 14.729 43.9433 15.4126 43.9433 16.1253V18.8128C43.9433 19.5256 43.6589 20.2092 43.1527 20.7132C42.6465 21.2172 41.9599 21.5003 41.244 21.5003V33.5941C41.244 35.376 40.5331 37.0849 39.2675 38.345C38.002 39.605 36.2856 40.3128 34.4959 40.3128H10.2027C8.41301 40.3128 6.6966 39.605 5.43109 38.345C4.16557 37.0849 3.45461 35.376 3.45461 33.5941V21.5003C2.73873 21.5003 2.05217 21.2172 1.54596 20.7132C1.03975 20.2092 0.755371 19.5256 0.755371 18.8128V16.1253C0.755371 15.4126 1.03975 14.729 1.54596 14.225C2.05217 13.721 2.73873 13.4378 3.45461 13.4378H6.73959L14.4405 0.653394C14.5316 0.501965 14.6518 0.369883 14.7941 0.264694C14.9365 0.159506 15.0982 0.0832708 15.2702 0.0403447C15.4421 -0.00258133 15.6209 -0.0113575 15.7963 0.0145171C15.9716 0.0403916 16.1402 0.10041 16.2922 0.191144H16.2949ZM6.15386 21.5003V33.5941C6.15386 34.6632 6.58043 35.6886 7.33974 36.4446C8.09905 37.2006 9.1289 37.6253 10.2027 37.6253H34.4959C35.5697 37.6253 36.5996 37.2006 37.3589 36.4446C38.1182 35.6886 38.5448 34.6632 38.5448 33.5941V21.5003H6.15386ZM3.45461 16.1253V18.8128H41.244V16.1253H3.45461ZM11.5523 24.1878C11.9103 24.1878 12.2536 24.3294 12.5067 24.5814C12.7598 24.8334 12.902 25.1752 12.902 25.5316V33.5941C12.902 33.9505 12.7598 34.2923 12.5067 34.5443C12.2536 34.7963 11.9103 34.9378 11.5523 34.9378C11.1944 34.9378 10.8511 34.7963 10.598 34.5443C10.3449 34.2923 10.2027 33.9505 10.2027 33.5941V25.5316C10.2027 25.1752 10.3449 24.8334 10.598 24.5814C10.8511 24.3294 11.1944 24.1878 11.5523 24.1878ZM16.9508 24.1878C17.3088 24.1878 17.6521 24.3294 17.9052 24.5814C18.1583 24.8334 18.3005 25.1752 18.3005 25.5316V33.5941C18.3005 33.9505 18.1583 34.2923 17.9052 34.5443C17.6521 34.7963 17.3088 34.9378 16.9508 34.9378C16.5929 34.9378 16.2496 34.7963 15.9965 34.5443C15.7434 34.2923 15.6012 33.9505 15.6012 33.5941V25.5316C15.6012 25.1752 15.7434 24.8334 15.9965 24.5814C16.2496 24.3294 16.5929 24.1878 16.9508 24.1878ZM22.3493 24.1878C22.7073 24.1878 23.0505 24.3294 23.3036 24.5814C23.5567 24.8334 23.6989 25.1752 23.6989 25.5316V33.5941C23.6989 33.9505 23.5567 34.2923 23.3036 34.5443C23.0505 34.7963 22.7073 34.9378 22.3493 34.9378C21.9914 34.9378 21.6481 34.7963 21.395 34.5443C21.1419 34.2923 20.9997 33.9505 20.9997 33.5941V25.5316C20.9997 25.1752 21.1419 24.8334 21.395 24.5814C21.6481 24.3294 21.9914 24.1878 22.3493 24.1878ZM27.7478 24.1878C28.1057 24.1878 28.449 24.3294 28.7021 24.5814C28.9552 24.8334 29.0974 25.1752 29.0974 25.5316V33.5941C29.0974 33.9505 28.9552 34.2923 28.7021 34.5443C28.449 34.7963 28.1057 34.9378 27.7478 34.9378C27.3899 34.9378 27.0466 34.7963 26.7935 34.5443C26.5404 34.2923 26.3982 33.9505 26.3982 33.5941V25.5316C26.3982 25.1752 26.5404 24.8334 26.7935 24.5814C27.0466 24.3294 27.3899 24.1878 27.7478 24.1878ZM33.1463 24.1878C33.5042 24.1878 33.8475 24.3294 34.1006 24.5814C34.3537 24.8334 34.4959 25.1752 34.4959 25.5316V33.5941C34.4959 33.9505 34.3537 34.2923 34.1006 34.5443C33.8475 34.7963 33.5042 34.9378 33.1463 34.9378C32.7883 34.9378 32.4451 34.7963 32.192 34.5443C31.9389 34.2923 31.7967 33.9505 31.7967 33.5941V25.5316C31.7967 25.1752 31.9389 24.8334 32.192 24.5814C32.4451 24.3294 32.7883 24.1878 33.1463 24.1878Z" fill="#92B69A"/>
</svg>

<svg width="44" height="41" fill="none" xmlns="http://www.w3.org/2000/svg"><path d="M16.295.191a1.347 1.347 0 01.642 1.35 1.34 1.34 0 01-.178.494L9.887 13.438h24.925L27.937 2.035A1.34 1.34 0 0128.4.19a1.355 1.355 0 011.852.462l7.706 12.785h3.285c.716 0 1.403.283 1.909.787s.79 1.188.79 1.9v2.688a2.68 2.68 0 01-.79 1.9 2.705 2.705 0 01-1.909.787v12.094a6.7 6.7 0 01-1.977 4.751 6.763 6.763 0 01-4.771 1.968H10.203a6.763 6.763 0 01-4.772-1.968 6.704 6.704 0 01-1.976-4.75V21.5a2.705 2.705 0 01-1.909-.787 2.682 2.682 0 01-.79-1.9v-2.688c0-.712.284-1.396.79-1.9a2.705 2.705 0 011.909-.787H6.74L14.44.653a1.347 1.347 0 011.356-.638c.176.025.344.085.496.176h.003zM6.154 21.501v12.093c0 1.07.426 2.095 1.186 2.85a4.055 4.055 0 002.863 1.181h24.293a4.058 4.058 0 002.863-1.18 4.022 4.022 0 001.186-2.85V21.5H6.154zm-2.7-5.376v2.688h37.79v-2.688H3.454zm8.098 8.063a1.341 1.341 0 011.35 1.343v8.063c0 .356-.142.698-.395.95a1.353 1.353 0 01-2.304-.95v-8.062a1.348 1.348 0 011.349-1.344zm5.399 0a1.341 1.341 0 011.349 1.343v8.063c0 .356-.142.698-.395.95a1.353 1.353 0 01-2.304-.95v-8.062c0-.357.142-.699.395-.95.254-.253.597-.394.955-.394zm5.398 0a1.341 1.341 0 011.35 1.343v8.063c0 .356-.142.698-.395.95a1.352 1.352 0 01-2.304-.95v-8.062a1.348 1.348 0 011.349-1.344zm5.399 0a1.341 1.341 0 011.349 1.343v8.063c0 .356-.142.698-.395.95a1.353 1.353 0 01-2.304-.95v-8.062a1.348 1.348 0 011.35-1.344zm5.398 0a1.341 1.341 0 011.35 1.343v8.063c0 .356-.142.698-.395.95a1.353 1.353 0 01-2.304-.95v-8.062a1.348 1.348 0 011.349-1.344z" fill="#92B69A"/></svg>
